X:5
T:Wragg’s Duetto the 20th,A March.2voices. RH.005
R:march
S:Rev.R.Harrison’s MS,c1815,Cumbria
O:England
A:Temple Sowerby,Cumbria
Z:vmp.Simon Wilson. Review PJH, 2008.
M:C
L:1/8
Q:2/4=80
K:G
[V:1]|:D2|G2G>GG2A2|B2B>BB2c2|de/f/ (g/f/).e/.d/ .e.d.c.B|
A2A>AA2D2|G2G>GG2A2|B2B>BB2c2|d>ef>gB2A2|G2G>GG2:|
[V:2]|:z2|z4z2D2|G2G>GG2A2|Bc/d/ (e/d/).c/.B/ .c.B.A.G|
D2D>DD2z2|z4z2D2|G2G>GG2A2|B>cA>BG2F2|G2G>GG2:|
%
[V:1]|:A2|d2d>dd2e2|f2f>ff2g2|afaf (ba)gf|e2e>ee2A2|
d2d>dd2e2|f2f>ff2g2|a>fb>g f>ed>^c|d2d>e d>cB>A|
[V:2]|:z2|z4z2A2|d2d>dd2e2|fdfd gfed|A2A.A A.GF>E|
D2z2z2A2|d2d>dd2e2|f>dg>ed2A2|D2d>c B>AG>F|
%
[V:1] G2G>GG2A2|B2B>BB2c2|de/f/ (g/f/).e/.d/ .e.d.c.B|
A2A>AA2D2|G2G>GG2A2|B2B>BB2c2|(d/e/).f/.g/ .f/.e/.d/.c/B2A2|G3D GDGD|
[V:2] G2z2z2D2|G2G>GG2A2|Bc/d/ (e/d/).c/.B/ .c.B.A.G|
D2D>DD2z2|z4z2D2|G2G>GG2A2|B>B (d/c/).B/.A/ G2F2|G2z2z4|
%
[V:1] B3G BGBG|d3B dBdB|g3d gdgd|g>ab>a g>fe>d|
e>fg>f e>dc>B|G/A/A6G/A/|G3b gbgb|g2z2g2z2|g6:|
[V:2] G3D GDGD|B3G BGBG|d3B dBdB|G2z2z4|
g>ab>a g>fe>d|cBcB d2D2|G3d BdBd|GBdB GBdB|G6:|

